X: 6117
T: Captain Higgins
R: hornpipe
M: 4/4
K: Eminor
E2 B2 A2 B2|G2 AG F2 ED|EFGA B2 e2|d2 B2 B4|
c2 cd B2 g2|f2 e2 de f2|edBA GA B2|G2 FE E4||
F2 EF GFE^D|E2 B2 E2 F2|G2 AG F2 ED|E2 F2 GFGA|
B2 e2 Bedf|Be g2 fg a2|f2 ed B2 GB|dBGB eBAG|
F2 ED B2 BA|GABG d2 dA|d2 dA BABc|dcBA G2 FE|
FGAF D2 EF|GEEA F^DFB|G3 F/E/ E4||
M:6/8
G3 E2B|G2F AFD|GBe GBe|FAd FAd|
B3 G2B|c2B AGF|GFE AF^D|E3 E3||
BGB BGB|dGd dGd|eAe eAe|g3 f3|
bg/a/b afa|bg/a/b afa|gfe ^dBd|e3 e3||

